static/fa/svgs/regular/hand-point-up.svg

<svg xmlns="http://www.w3.org/2000/svg" viewBox="0 0 448 512"><!--! Font Awesome Free 6.1.1 by @fontawesome - https://fontawesome.com License - https://fontawesome.com/license/free (Icons: CC BY 4.0, Fonts: SIL OFL 1.1, Code: MIT License) Copyright 2022 Fonticons, Inc.--><path d="M376 192c-6.428 0-12.66.846-18.6 2.434C344.7 173.8 321.9 160 296 160c-6.428 0-12.66.846-18.6 2.434C264.7 141.8 241.9 128 216 128c-2.7 0-5.4.1-8 .4V72c0-39.7-32.3-72-72-72S64 32.3 64 72v196.3c-19.49 16.2-32 40.5-32 67.7v49.88c0 32.1 17.1 61.65 44.63 77.12l55.83 31.35C153.1 505.9 176.4 512 199.8 512h107.9c77.4 0 140.3-64.6 140.3-144V264c0-39.7-32.3-72-72-72zm-104 40c0-13.23 10.78-24 24-24s24 10.8 24 24v47.91c0 13.19-10.8 24.09-24 24.09s-24-10.8-24-24v-48zm-80-32c0-13.2 10.8-24 24-24s24 10.77 24 24v48c0 3.029-.701 5.875-1.73 8.545C227.9 251.3 216.4 248 204 248h-12v-48zM112 72c0-13.23 10.78-24 24-24s24 10.77 24 24v176h-40c-2.686 0-5.217.557-7.84.793.04-.293-.16-.493-.16-.793V72zm195.7 392H199.8c-15.25 0-30.41-3.984-43.88-11.52l-55.78-31.34C87.72 414.2 80 400.6 80 385.9V336c0-22.06 17.94-40 40-40h84c15.44 0 28 12.56 28 28s-12.6 28-28 28h-52c-13.2 0-24 10.8-24 24s10.75 24 24 24h52c33.23 0 61.25-21.58 71.54-51.36C282 350.7 288.9 352 296 352c5.041 0 9.836-1.166 14.66-2.178C322 374.6 346.1 392 376 392c7.684 0 14.94-1.557 21.87-3.836C388.9 431.4 351.9 464 307.7 464zM400 320c0 13.23-10.78 24-24 24s-24-10.8-24-24v-56c0-13.23 10.78-24 24-24s24 10.77 24 24v56z"/></svg>

<svg xmlns="http://www.w3.org/2000/svg" viewBox="0 0 448 512"><!--! Font Awesome Free 6.1.1 by @fontawesome - https://fontawesome.com License - https://fontawesome.com/license/free (Icons: CC BY 4.0, Fonts: SIL OFL 1.1, Code: MIT License) Copyright 2022 Fonticons, Inc. --><path d="M376 192c-6.428 0-12.66 .8457-18.6 2.434C344.7 173.8 321.9 160 296 160c-6.428 0-12.66 .8457-18.6 2.434C264.7 141.8 241.9 128 216 128C213.3 128 210.6 128.1 208 128.4V72C208 32.3 175.7 0 136 0S64 32.3 64 72v196.3C44.51 284.5 32 308.8 32 336v49.88c0 32.1 17.1 61.65 44.63 77.12l55.83 31.35C153.1 505.9 176.4 512 199.8 512h107.9C385.1 512 448 447.4 448 368V264C448 224.3 415.7 192 376 192zM272 232c0-13.23 10.78-24 24-24S320 218.8 320 232v47.91C320 293.1 309.2 304 296 304S272 293.2 272 280V232zM192 200C192 186.8 202.8 176 216 176s24 10.77 24 24v48c0 3.029-.7012 5.875-1.73 8.545C227.9 251.3 216.4 248 204 248H192V200zM112 72c0-13.23 10.78-24 24-24S160 58.77 160 72v176H120c-2.686 0-5.217 .5566-7.84 .793C112.2 248.5 112 248.3 112 248V72zM307.7 464H199.8c-15.25 0-30.41-3.984-43.88-11.52l-55.78-31.34C87.72 414.2 80 400.6 80 385.9V336c0-22.06 17.94-40 40-40h84c15.44 0 28 12.56 28 28S219.4 352 204 352H152C138.8 352 128 362.8 128 376s10.75 24 24 24h52c33.23 0 61.25-21.58 71.54-51.36C282 350.7 288.9 352 296 352c5.041 0 9.836-1.166 14.66-2.178C322 374.6 346.1 392 376 392c7.684 0 14.94-1.557 21.87-3.836C388.9 431.4 351.9 464 307.7 464zM400 320c0 13.23-10.78 24-24 24S352 333.2 352 320V264c0-13.23 10.78-24 24-24s24 10.77 24 24V320z"/></svg>
